public/avatar/shoe/57.svg

<svg xmlns:xlink="http://www.w3.org/1999/xlink" height="38.3" width="36.05" xmlns="http://www.w3.org/2000/svg"><use height="20.35" transform="translate(0 12.4)" width="32" xlink:href="#a"/><defs><g id="a"><path d="M18.4 19.35q3.4-1.2 6.4-4.45 2.9-1.45 4.8-2.05 1.65-.8 1.35-3.55-.25-2.7-.55-3h-.15L30.2 6Q27.8.5 22.95 1.05q-4.25.5-8.5 4.3-1.45.25-3.3 3.3-.45.65-.15 2.15l-5.1 2.05q-4.15 1.75-4.6 2.1-1.1.95 2.15 1.8l9.9 2.45 5.05.15Z" fill="none" stroke="#000" stroke-linecap="round" stroke-linejoin="round" stroke-width="2"/><path d="M-3 7.85q-6.15-.3-7.8-2.8.35-1.8 4.35-4.15 3.55-2.05 5.6-2.3Q4-1.95 6.4 3.55 7.6 6.5 5.55 7.7q-.8.5-8.55.15" fill="#d69e5e" fill-rule="evenodd" transform="translate(23.8 2.45)"/><path d="M7.15 6.85q.3 2.75-1.35 3.55-1.9.6-4.8 2.05-3 3.25-6.4 4.45l-5.05-.15-9.9-2.45q-3.25-.85-2.15-1.8.45-.35 4.6-2.1l5.1-2.05q-.3-1.5.15-2.15 1.95-3.05 3.4-3.3 1.7 2.5 5.2 2.5Q2.1 5.4 6.6 3.85q.3.3.55 3" fill="#243f57" fill-rule="evenodd" transform="translate(23.8 2.45)"/><path d="m-12.45 8.8.4 1.25q.7.8 3.25 1.65 2.7 1 4.5.75 2.6-.3 7.15-1.8-3.5 4.1-15 2.85-6.55-.7-.3-4.7" fill-rule="evenodd" transform="translate(23.8 2.45)"/><path d="m-9.25 2.9 1.5-.4 3.25.1q2.3.8 4.75 3.9-3.3 1.35-5.2.9L-8.9 5.8l-.35-2.9" fill="#243f57" fill-rule="evenodd" transform="translate(23.8 2.45)"/><path d="m-8.6 7.7 3.65.15 4.8.3-4.75.9-3.7-1.35m-7.7 7.15 8.25 1.25 2.85-.15 2.7-1.05q-2.7 2-4.25 2.15-1.55.15-9.55-2.2" fill="#4981b2" fill-rule="evenodd" transform="translate(23.8 2.45)"/><path d="M-3.3-.95 2-1.2Q5.8.25 6.6 3.85l-3.4.8Q2.8 2.9.85 1.7-.35.95-3.05.6L-5.5.35h-.2l2.4-1.3" fill="#9e6e36" fill-rule="evenodd" transform="translate(23.8 2.45)"/><path d="m3.5 6.1 3.7-1.65.2 2.35.05 1.45q0 1.3-.55 1.75l-2.75 1.65L3.5 6.1" fill-rule="evenodd" transform="translate(23.8 2.45)"/></g></defs></svg>

<?xml version="1.0" encoding="UTF-8" standalone="no"?>
<svg xmlns:xlink="http://www.w3.org/1999/xlink" height="38.3px" width="36.05px" xmlns="http://www.w3.org/2000/svg">
  <g transform="matrix(1.0, 0.0, 0.0, 1.0, 23.8, 14.85)">
    <use height="20.35" transform="matrix(1.0, 0.0, 0.0, 1.0, -23.8, -2.45)" width="32.0" xlink:href="#shape0"/>
  </g>
  <defs>
    <g id="shape0" transform="matrix(1.0, 0.0, 0.0, 1.0, 23.8, 2.45)">
      <path d="M-5.4 16.9 Q-2.0 15.7 1.0 12.45 3.9 11.0 5.8 10.4 7.45 9.6 7.15 6.85 6.9 4.15 6.6 3.85 L6.45 3.85 6.4 3.55 Q4.0 -1.95 -0.85 -1.4 -5.1 -0.9 -9.35 2.9 -10.8 3.15 -12.65 6.2 -13.1 6.85 -12.8 8.35 L-17.9 10.4 Q-22.05 12.15 -22.5 12.5 -23.6 13.45 -20.35 14.3 L-10.45 16.75 -5.4 16.9 Z" fill="none" stroke="#000000" stroke-linecap="round" stroke-linejoin="round" stroke-width="2.0"/>
      <path d="M-3.0 7.85 Q-9.15 7.55 -10.8 5.05 -10.45 3.25 -6.45 0.9 -2.9 -1.15 -0.85 -1.4 4.0 -1.95 6.4 3.55 7.6 6.5 5.55 7.7 4.75 8.2 -3.0 7.85" fill="#d69e5e" fill-rule="evenodd" stroke="none"/>
      <path d="M7.15 6.85 Q7.45 9.6 5.8 10.4 3.9 11.0 1.0 12.45 -2.0 15.7 -5.4 16.9 L-10.45 16.75 -20.35 14.3 Q-23.6 13.45 -22.5 12.5 -22.05 12.15 -17.9 10.4 L-12.8 8.35 Q-13.1 6.85 -12.65 6.2 -10.7 3.15 -9.25 2.9 -7.55 5.4 -4.05 5.4 2.1 5.4 6.6 3.85 6.9 4.15 7.15 6.85" fill="#243f57" fill-rule="evenodd" stroke="none"/>
      <path d="M-12.45 8.8 L-12.05 10.05 Q-11.35 10.85 -8.8 11.7 -6.1 12.7 -4.3 12.45 -1.7 12.15 2.85 10.65 -0.65 14.75 -12.15 13.5 -18.7 12.8 -12.45 8.8" fill="#000000" fill-rule="evenodd" stroke="none"/>
      <path d="M-9.25 2.9 L-7.75 2.5 -4.5 2.6 Q-2.2 3.4 0.25 6.5 -3.05 7.85 -4.95 7.4 L-8.9 5.8 -9.25 2.9" fill="#243f57" fill-rule="evenodd" stroke="none"/>
      <path d="M-8.6 7.7 L-4.95 7.85 -0.15 8.15 -4.9 9.05 -8.6 7.7" fill="#4981b2" fill-rule="evenodd" stroke="none"/>
      <path d="M-16.3 14.85 L-8.05 16.1 -5.2 15.95 -2.5 14.9 Q-5.2 16.9 -6.75 17.05 -8.3 17.2 -16.3 14.85" fill="#4981b2" fill-rule="evenodd" stroke="none"/>
      <path d="M-3.3 -0.95 L2.0 -1.2 Q5.8 0.25 6.6 3.85 L3.2 4.65 Q2.8 2.9 0.85 1.7 -0.35 0.95 -3.05 0.6 L-5.5 0.35 -5.7 0.35 -3.3 -0.95" fill="#9e6e36" fill-rule="evenodd" stroke="none"/>
      <path d="M3.5 6.1 L7.2 4.45 7.4 6.8 7.45 8.25 Q7.45 9.55 6.9 10.0 L4.15 11.65 3.5 6.1" fill="#000000" fill-rule="evenodd" stroke="none"/>
    </g>
  </defs>
</svg>
